X: 24835
T: Maggie West's
R: waltz
M: 3/4
K: Gmajor
D GA|B3 B AG|E G2 D GA|B d2 g g/a/b|a3 a ga|
g e2 e ge|d3 B AG|1 A2 AB B/A/G|A3:|2 A3 B GF|G3||
|:d B/A/G|A G2 d B/A/G|A G2 d B/A/G|AB dg- g/a/b|a3 a ga|
g e2 e ge|d3 B AG|1 A2 AB B/A/G|A3:|2 A3 B GF|G3||

